assets/landing/benefits/compatible.svg

<svg width="40" height="40" viewBox="0 0 40 40" fill="none" xmlns="http://www.w3.org/2000/svg">
<path fill-rule="evenodd" clip-rule="evenodd" d="M8.75 25C8.41848 25 8.10054 24.8683 7.86612 24.6339C7.6317 24.3995 7.5 24.0815 7.5 23.75V3.75C7.5 3.41848 7.6317 3.10054 7.86612 2.86612C8.10054 2.6317 8.41848 2.5 8.75 2.5H31.25C31.5815 2.5 31.8995 2.6317 32.1339 2.86612C32.3683 3.10054 32.5 3.41848 32.5 3.75V23.75C32.5 24.0815 32.3683 24.3995 32.1339 24.6339C31.8995 24.8683 31.5815 25 31.25 25H26.25C25.9185 25 25.6005 25.1317 25.3661 25.3661C25.1317 25.6005 25 25.9185 25 26.25C25 26.5815 25.1317 26.8995 25.3661 27.1339C25.6005 27.3683 25.9185 27.5 26.25 27.5H31.25C32.2446 27.5 33.1984 27.1049 33.9017 26.4017C34.6049 25.6984 35 24.7446 35 23.75V3.75C35 2.75544 34.6049 1.80161 33.9017 1.09835C33.1984 0.395088 32.2446 0 31.25 0L8.75 0C7.75544 0 6.80161 0.395088 6.09835 1.09835C5.39509 1.80161 5 2.75544 5 3.75V23.75C5 24.7446 5.39509 25.6984 6.09835 26.4017C6.80161 27.1049 7.75544 27.5 8.75 27.5H13.75C14.0815 27.5 14.3995 27.3683 14.6339 27.1339C14.8683 26.8995 15 26.5815 15 26.25C15 25.9185 14.8683 25.6005 14.6339 25.3661C14.3995 25.1317 14.0815 25 13.75 25H8.75Z" fill="#03E2B3"/>
<path fill-rule="evenodd" clip-rule="evenodd" d="M19.115 10.365C19.2311 10.2486 19.369 10.1563 19.5209 10.0933C19.6728 10.0302 19.8356 9.9978 20 9.9978C20.1644 9.9978 20.3272 10.0302 20.4791 10.0933C20.6309 10.1563 20.7689 10.2486 20.885 10.365L28.385 17.865C28.6197 18.0998 28.7516 18.4181 28.7516 18.75C28.7516 19.082 28.6197 19.4003 28.385 19.635C28.1503 19.8698 27.8319 20.0016 27.5 20.0016C27.1681 20.0016 26.8497 19.8698 26.615 19.635L21.25 14.2675V36.25C21.25 36.5816 21.1183 36.8995 20.8839 37.1339C20.6495 37.3683 20.3315 37.5 20 37.5C19.6685 37.5 19.3505 37.3683 19.1161 37.1339C18.8817 36.8995 18.75 36.5816 18.75 36.25V14.2675L13.385 19.635C13.1503 19.8698 12.8319 20.0016 12.5 20.0016C12.1681 20.0016 11.8497 19.8698 11.615 19.635C11.3803 19.4003 11.2484 19.082 11.2484 18.75C11.2484 18.4181 11.3803 18.0998 11.615 17.865L19.115 10.365Z" fill="#03E2B3"/>
</svg>

<svg xmlns="http://www.w3.org/2000/svg" fill="#03E2B3" viewBox="0 0 40 40">
  <path stroke="none" fill-rule="evenodd" d="M8.75 25a1.25 1.25 0 0 1-1.25-1.25v-20A1.25 1.25 0 0 1 8.75 2.5h22.5a1.25 1.25 0 0 1 1.25 1.25v20A1.25 1.25 0 0 1 31.25 25h-5a1.25 1.25 0 0 0 0 2.5h5A3.75 3.75 0 0 0 35 23.75v-20A3.75 3.75 0 0 0 31.25 0H8.75A3.75 3.75 0 0 0 5 3.75v20a3.75 3.75 0 0 0 3.75 3.75h5a1.25 1.25 0 0 0 0-2.5h-5Z" clip-rule="evenodd"/>
  <path stroke="none" fill-rule="evenodd" d="M19.11 10.37a1.25 1.25 0 0 1 1.78 0l7.5 7.5a1.25 1.25 0 0 1-1.78 1.77l-5.36-5.37v21.98a1.25 1.25 0 1 1-2.5 0V14.27l-5.37 5.37a1.25 1.25 0 1 1-1.77-1.78l7.5-7.5Z" clip-rule="evenodd"/>
</svg>
